icons/keyboard-fill.svg

<svg xmlns="http://www.w3.org/2000/svg" viewBox="0 0 24 24">
    <g>
        <path fill="none" d="M0 0h24v24H0z"/>
        <path d="M3 17h18v2H3v-2zm0-6h3v3H3v-3zm5 0h3v3H8v-3zM3 5h3v3H3V5zm10 0h3v3h-3V5zm5 0h3v3h-3V5zm-5 6h3v3h-3v-3zm5 0h3v3h-3v-3zM8 5h3v3H8V5z"/>
    </g>
</svg>

<svg viewBox="0 0 24 24" fill="currentColor" xmlns="http://www.w3.org/2000/svg"><path d="M3 17H21V19H3V17ZM3 11H6V14H3V11ZM8 11H11V14H8V11ZM3 5H6V8H3V5ZM13 5H16V8H13V5ZM18 5H21V8H18V5ZM13 11H16V14H13V11ZM18 11H21V14H18V11ZM8 5H11V8H8V5Z"/></svg>
